X:1
T:Title
%%score { ( 1 2 ) | ( 3 4 ) }
L:1/8
M:4/4
K:A
V:1 treble nm="Grand Piano"
V:2 treble 
V:3 bass 
V:4 bass 
V:1
 z4 z2[Q:1/4=94] [CA]B | [EAc]2 [EAc]>[EAc] [EAc]2 [CEA]>[CEA] | .[DFB]2 [FA]>F E2 E>E | %3
 A2 A>B c<c [EA]2 | [EGB]6 [CA]B | [EAc]2 [EAc]>[EAc] [EAc]2 [CEA]>[CEA] | %6
 .[DFB]2 [DFA]>[DF] [CE]2 [CE]>[CE] | [CEA]2 [EA]>[EB] [EAc]<[EAc] [DEB]2 | [CEA]6 z2 | e6 z2 | %10
 c6 z2 | A6 z2 | E6 z2 | [CEA]2 [CEA]>[DEB] [EAc]<[EAc] [EA]2 | B2- [GB-]>[GB-] [GB]2 z2 | e6 z2 | %16
 c6 z2 | A6 z2 | %18
[M:39/32] C/4-C/4-C/4-C/4-C/-<C/C/4-C/4-C/-<C/C/[CA]/4-[CA]/4-[CA]/4-[CA]/4-[CA]/4-[CA]/4-[CA]/4-[CA]/4-[CA]/-<[CA]/c/4-c/4-c/4-c/4-c/-<c/-[C-E-A-c]/[CEA]/4 | %19
[M:4/4] (5:4:5[EAc]2- [EAc]/ [EA]/-[EA]3/2[EGB]/ [EAc]<[Ac]- [D-AB-c]/<[DB]/-[DB]- | %20
[M:3/4] [C-DE-A-B]/>[CEA]/-[CEA]- [CEA]4 |] %21
V:2
 z4 z2 E2 | x8 | x8 | x8 | z4 z2 E2 | x8 | x8 | x8 | x8 | z2 A>A A2 e>e | z2 A>A A2 [EA]>[EA] | %11
 F2 F>F F2 F>F | C2 C>C C2 [CE]>[CE] | x8 | G2 z2 z4 | z2 A>A A2 e>e | z2 A>A A2 [EA]>[EA] | %17
 F2 F>F F2 F>F | %18
[M:39/32] E/4-E/4-E/4-E/4-E/4-E/4-E/4-E/4-E/4-E/4-E/4-E/4-E/-<E/ z/4 z/4 z/4 z/4 z/4 z/4 z/4 z/4 z/4 z/4 z/ E/4-E/4-E/4-E/4-E/-<E/ z/4 z/ | %19
[M:4/4] z4 z/ E3/2 E2 |[M:3/4] x6 |] %21
V:3
 z4 z2 z D | A,,2 A,,>G,, A,,2 A,,>A,, | z/ A3/2 [D,D]>[D,D][K:treble] [A,C]2 [A,C]>[A,C] | %3
 [A,CE]2 [A,CE]>[A,DE] [A,EA]<[A,EA][K:bass] C,2 | E,6 z D | A,,2 A,,>A,, A,,2 A,,>A,, | %6
 z/ A3/2 D,>D, A,2 A,>A, | A,2 C,>D, E,<E, E,2 | A,,6 z2 | %9
 [A,CA]2 [A,C]>[A,C] [A,C]2 [A,CA]>[A,CA] | [A,EA]2[K:bass] [A,E]>[A,E] [A,E]2 C,>C, | %11
 [D,D]2 [D,D]>[D,D] [D,D]2 [D,A,D]>[D,A,D] | [A,,A,]2 [A,,A,]>[A,,A,] [A,,A,]2 [A,,A,]>[A,,A,] | %13
 A,,2 A,,>A,, A,,<A,, C,2 | [E,E]2 [E,E]>[E,E] [E,E]2 z2 | %15
 [A,CA]2 [A,C]>[A,C] [A,C]2 [A,CA]>[A,CA] | [A,EA]2[K:bass] [A,E]>[A,E] [A,E]2 C,>C, | %17
 [D,D]2 [D,D]>[D,D] [D,D]2 [D,A,D]>[D,A,D] | %18
[M:39/32] [A,,A,]/4-[A,,A,]/4-[A,,A,]/4-[A,,A,]/4-[A,,A,]/-<[A,,A,]/[A,,A,]/4-[A,,A,]/4-[A,,A,]/-<[A,,A,]/[A,,A,]/[A,,A,]/4-[A,,A,]/4-[A,,A,]/4-[A,,A,]/4-[A,,A,]/4-[A,,A,]/4-[A,,A,]/4-[A,,A,]/4-[A,,A,]/-<[A,,A,]/A,/4-A,/4-A,/4-A,/4-A,/-<A,/A,3/4 | %19
[M:4/4] z4 z2 E,2- |[M:3/4] E,3/4 z/4 z z2 z2 |] %21
V:4
 z4 z2 A,,2 | x8 | D,2 z2[K:treble] z4 | x6[K:bass] x2 | z4 z2 A,,2 | x8 | D,2 z2 z4 | x8 | x8 | %9
 x8 | x2[K:bass] x6 | x8 | x8 | x8 | x8 | x8 | x2[K:bass] x6 | x8 |[M:39/32] x39/4 | %19
[M:4/4] (5:4:5A,2- A,/ C,/-C,3/2D,/ E,<E, z2 |[M:3/4] A,,6 |] %21

